images/icons/logo.svg

<svg width="135" height="62" viewBox="0 0 135 62" fill="none" xmlns="http://www.w3.org/2000/svg">
<path d="M40.1354 20.1702H38.5511H33.5342V13.4848C33.5342 6.02216 27.3027 -0.0412682 19.698 0.476974C12.9912 0.943391 7.65742 6.48858 7.65742 13.1739V20.1702H2.64049H1.0562C0.475288 20.1702 0 20.6366 0 21.2066V22.7614V28.9803C0 39.7597 8.6608 48.6216 19.5396 49.1399V58.4682H11.6182C10.8788 58.4682 10.2979 59.0383 10.2979 59.7638C10.2979 60.4894 10.8788 61.0594 11.6182 61.0594H29.5735C30.3128 61.0594 30.8937 60.4894 30.8937 59.7638C30.8937 59.0383 30.3128 58.4682 29.5735 58.4682H22.1801V49.1399C32.7949 48.3107 41.1916 39.6042 41.1916 28.9803V22.7614V21.2066C41.1916 20.6366 40.7163 20.1702 40.1354 20.1702ZM19.5396 46.5487C10.1395 46.0304 2.64049 38.3605 2.64049 28.9803V22.7614H7.60461V29.7576C7.60461 36.3911 12.8328 41.8845 19.4868 42.4027V46.5487H19.5396ZM20.9655 39.8633C15.1036 40.0706 10.2979 35.4583 10.2979 29.7576V22.7614V20.1702V13.1739C10.2979 7.47324 15.1036 2.86089 20.9655 3.06818C25.2431 3.22366 28.7813 6.02216 30.2072 9.80533H21.388C20.6486 9.80533 20.0677 10.3754 20.0677 11.1009C20.0677 11.8265 20.6486 12.3965 21.388 12.3965H30.8409C30.8937 12.7593 30.8937 13.0703 30.8937 13.433V16.5425H21.388C20.6486 16.5425 20.0677 17.1125 20.0677 17.8381C20.0677 18.5636 20.6486 19.1337 21.388 19.1337H30.8937V20.1702V22.7614H21.388C20.6486 22.7614 20.0677 23.3314 20.0677 24.057C20.0677 24.7825 20.6486 25.3526 21.388 25.3526H30.8937V29.4985H21.388C20.6486 29.4985 20.0677 30.0686 20.0677 30.7941C20.0677 31.5197 20.6486 32.0897 21.388 32.0897H30.5241C29.415 36.3911 25.6656 39.7079 20.9655 39.8633ZM38.5511 28.9803C38.5511 38.1532 31.369 45.7195 22.1801 46.5487V42.4027C28.5701 41.5736 33.5342 36.2357 33.5342 29.7576V22.7614H38.5511V28.9803Z" fill="white"/>
<path d="M133.983 7.73024C133.983 10.1365 131.99 12.1192 129.491 12.1192C126.993 12.1192 125 10.1365 125 7.73024C125 5.32398 126.993 3.34131 129.491 3.34131C131.99 3.34131 133.983 5.32398 133.983 7.73024Z" fill="#D31313" stroke="white" stroke-width="2"/>
<path d="M60.4614 14.9072V26.4122H58.1378V17.0838H54.0186V26.4122H51.695V14.9072H60.4614Z" fill="white"/>
<path d="M72.7133 26.4122V19.4159L67.6964 26.4122H65.9536V14.9072H68.2773V21.9553L73.2942 14.9591H75.0369V26.464H72.7133V26.4122Z" fill="white"/>
<path d="M79.6314 26.4122V24.2874C80.3179 24.3911 80.846 24.2356 81.1629 23.8728C81.5325 23.51 81.691 22.7845 81.691 21.6962V14.9072H89.6652V26.4122H87.3944V17.0838H84.0146V21.6444C84.0146 22.629 83.909 23.4582 83.6449 24.1319C83.3809 24.8056 83.064 25.3239 82.6415 25.6348C82.2191 25.9458 81.7438 26.2049 81.2685 26.3085C80.7932 26.4122 80.2123 26.464 79.6314 26.4122Z" fill="white"/>
<path d="M105.033 24.9093C103.871 26.0494 102.392 26.6195 100.702 26.6195C99.0126 26.6195 97.5867 26.0494 96.3721 24.9093C95.2103 23.7692 94.6294 22.3181 94.6294 20.6597C94.6294 19.0014 95.2103 17.5503 96.3721 16.4101C97.5339 15.27 98.9598 14.7 100.702 14.7C102.392 14.7 103.818 15.27 105.033 16.4101C106.195 17.5503 106.828 19.0014 106.828 20.6597C106.828 22.3181 106.195 23.7692 105.033 24.9093ZM98.0092 23.3546C98.7485 24.0801 99.6463 24.3911 100.702 24.3911C101.759 24.3911 102.656 24.0283 103.396 23.3546C104.135 22.6291 104.505 21.748 104.505 20.6597C104.505 19.5714 104.135 18.6386 103.396 17.9649C102.656 17.2393 101.759 16.8766 100.702 16.8766C99.6463 16.8766 98.7485 17.2393 98.0092 17.9649C97.2699 18.6904 96.9002 19.5714 96.9002 20.6597C96.953 21.748 97.3227 22.6291 98.0092 23.3546Z" fill="white"/>
<path d="M118.869 14.9072V17.0838H115.7V26.4122H113.377V17.0838H110.208V14.9072H118.869Z" fill="white"/>
<path d="M62.3098 32.4756V43.9806H60.039V36.5179L56.7648 41.8558H56.5007L53.2265 36.5179V43.9287H50.9029V32.4756H53.2793L56.6591 37.9171L59.9862 32.4756H62.3098Z" fill="white"/>
<path d="M70.1784 41.8039H75.0897V43.9806H67.8548V32.4756H74.9841V34.6522H70.1256V37.0879H74.5616V39.2127H70.1256V41.8039H70.1784Z" fill="white"/>
<path d="M89.0315 41.8039H90.2989V46.1572H87.9753V43.9805H81.5325V46.1572H79.2089V41.8039H80.3707C81.0044 40.9229 81.3213 39.6273 81.3213 37.9171V32.4756H89.0315V41.8039ZM82.8528 41.8039H86.7607V34.6004H83.6449V37.9689C83.6449 39.5755 83.3809 40.8711 82.8528 41.8039Z" fill="white"/>
<path d="M101.97 43.9287V36.9325L96.953 43.9287H95.2103V32.4756H97.5339V39.4718L102.551 32.4756H104.294V43.9806H101.97V43.9287Z" fill="white"/>
<path d="M117.285 43.9288L116.598 41.8558H111.951L111.264 43.9288H108.782L112.902 32.4238H115.753L119.872 43.9288H117.285ZM112.69 39.7829H115.912L114.327 35.0669L112.69 39.7829Z" fill="white"/>
</svg>

<svg xmlns="http://www.w3.org/2000/svg" fill="none" viewBox="0 0 135 62"><path fill="#fff" d="M40.135 20.17H33.534v-6.685c0-7.463-6.231-13.526-13.836-13.008-6.707.466-12.04 6.012-12.04 12.697v6.996H1.055A1.05 1.05 0 000 21.207v7.774C0 39.76 8.66 48.62 19.54 49.14v9.328h-7.922c-.74 0-1.32.57-1.32 1.296 0 .725.58 1.295 1.32 1.295h17.956c.739 0 1.32-.57 1.32-1.295 0-.726-.581-1.296-1.32-1.296H22.18V49.14c10.615-.83 19.012-9.536 19.012-20.16V21.207a1.05 1.05 0 00-1.057-1.037zM19.54 46.55c-9.4-.519-16.9-8.188-16.9-17.569v-6.219h4.965v6.997c0 6.633 5.228 12.127 11.882 12.645v4.146h.053zm1.425-6.686c-5.861.208-10.667-4.405-10.667-10.105V13.174c0-5.7 4.806-10.313 10.667-10.106 4.278.156 7.816 2.954 9.242 6.737h-8.819c-.74 0-1.32.57-1.32 1.296 0 .725.58 1.295 1.32 1.295h9.453c.053.363.053.674.053 1.037v3.11h-9.506c-.74 0-1.32.57-1.32 1.295 0 .726.58 1.296 1.32 1.296h9.506V22.76h-9.506c-.74 0-1.32.57-1.32 1.296 0 .726.58 1.296 1.32 1.296h9.506v4.145h-9.506c-.74 0-1.32.57-1.32 1.296 0 .726.58 1.296 1.32 1.296h9.136c-1.109 4.301-4.858 7.618-9.559 7.773zM38.551 28.98c0 9.173-7.182 16.74-16.37 17.569v-4.146c6.39-.83 11.353-6.167 11.353-12.645V22.76h5.017v6.22z"/><path fill="#D31313" stroke="#fff" stroke-width="2" d="M133.983 7.73c0 2.406-1.993 4.39-4.492 4.39-2.498 0-4.491-1.983-4.491-4.39 0-2.406 1.993-4.389 4.491-4.389 2.499 0 4.492 1.983 4.492 4.39z"/><path fill="#fff" d="M60.461 14.907v11.505h-2.323v-9.328h-4.12v9.328h-2.323V14.907h8.766zM72.713 26.412v-6.996l-5.017 6.996h-1.742V14.907h2.323v7.048l5.017-6.996h1.743v11.505h-2.324v-.052zM79.631 26.412v-2.125c.687.104 1.215-.051 1.532-.414.37-.363.528-1.088.528-2.177v-6.789h7.974v11.505h-2.27v-9.328h-3.38v4.56c0 .985-.106 1.814-.37 2.488-.264.674-.581 1.192-1.004 1.503-.422.31-.897.57-1.373.673-.475.104-1.056.156-1.637.104zM105.033 24.91c-1.162 1.14-2.641 1.71-4.331 1.71-1.69 0-3.115-.57-4.33-1.71-1.162-1.14-1.743-2.592-1.743-4.25 0-1.659.581-3.11 1.743-4.25 1.162-1.14 2.588-1.71 4.33-1.71 1.69 0 3.116.57 4.331 1.71 1.162 1.14 1.795 2.591 1.795 4.25 0 1.658-.633 3.11-1.795 4.25zm-7.024-1.555c.74.725 1.637 1.036 2.693 1.036a3.879 3.879 0 002.694-1.036c.739-.726 1.109-1.607 1.109-2.695 0-1.089-.37-2.021-1.109-2.695-.74-.726-1.637-1.088-2.694-1.088-1.056 0-1.953.362-2.693 1.088-.74.725-1.109 1.606-1.109 2.695.053 1.088.423 1.97 1.11 2.695zM118.869 14.907v2.177H115.7v9.328h-2.323v-9.328h-3.169v-2.177h8.661zM62.31 32.476V43.98h-2.271v-7.463l-3.274 5.338H56.5l-3.274-5.338v7.41h-2.324V32.477h2.376l3.38 5.441 3.327-5.441h2.324zM70.178 41.804h4.912v2.177h-7.235V32.476h7.13v2.176h-4.86v2.436h4.437v2.125h-4.436v2.59h.052zM89.031 41.804H90.3v4.353h-2.324v-2.176h-6.442v2.176h-2.324v-4.353h1.162c.633-.881.95-2.177.95-3.887v-5.441h7.71v9.328zm-6.178 0h3.908V34.6h-3.116v3.369c0 1.606-.264 2.902-.792 3.835zM101.97 43.929v-6.997l-5.017 6.997H95.21V32.476h2.324v6.996l5.017-6.996h1.743V43.98h-2.324v-.052zM117.285 43.929l-.687-2.073h-4.647l-.687 2.073h-2.482l4.12-11.505h2.851l4.119 11.505h-2.587zm-4.595-4.146h3.222l-1.585-4.716-1.637 4.716z"/></svg>
